X: 31807
T: Patsy Geary's
R: jig
M: 6/8
K: Gmajor
|:B2 B BcA|BGE G2 D|GAG GB/c/d|ecA ABc|
B2 B BcA|BGE G2 A|Bcd ecA|1 AGE D3:|2 AGE DE/F/G||
|:A2 A ABA|GED D2 D|EDE c2 A|BG/G/G EFG|
A2 A ABA|GED D2 A|Bcd ecA|1 AGE DE/F/G:|2 AGE D3||

